actions/22x22-dark/xml-text-new.svg

<svg xmlns="http://www.w3.org/2000/svg" viewBox="0 0 22 22">
 <defs id="defs3051">
   <style type="text/css" id="current-color-scheme">
     .ColorScheme-Text {
       color:#f2f2f2;
     }
     </style>
 </defs>
   <path
      style="fill:currentColor;fill-opacity:1;stroke:none"
      d="m16 3v2h-2v1h2v2h1v-2h2v-1h-2v-2zm-8.0898438 2-3.3144531 9.59375-.1230469.40625-1.4726562 4h1.6582031l1.625-4.4375h5.4335939l1.625 4.4375h1.658203l-1.472656-4-.123047-.40625-3.314453-9.59375h-.214844-1.75zm1.1054688 1.9375 2.179687 6.34375h-4.3906245z"
      class="ColorScheme-Text" />
</svg>

<svg xmlns="http://www.w3.org/2000/svg" viewBox="0 0 22 22">
  <defs id="defs3051">
    <style type="text/css" id="current-color-scheme">
      .ColorScheme-Text {
        color:#f2f2f2;
      }
      </style>
  </defs>
 <path 
    style="fill:currentColor;fill-opacity:1;stroke:none" 
    d="M 16 3 L 16 5 L 14 5 L 14 6 L 16 6 L 16 8 L 17 8 L 17 6 L 19 6 L 19 5 L 17 5 L 17 3 L 16 3 z M 7.9101562 5 L 4.5957031 14.59375 L 4.4726562 15 L 3 19 L 4.6582031 19 L 6.2832031 14.5625 L 11.716797 14.5625 L 13.341797 19 L 15 19 L 13.527344 15 L 13.404297 14.59375 L 10.089844 5 L 9.875 5 L 8.125 5 L 7.9101562 5 z M 9.015625 6.9375 L 11.195312 13.28125 L 6.8046875 13.28125 L 9.015625 6.9375 z "
    class="ColorScheme-Text"
    />  
</svg>
